X:1
T:Title
%%score { ( 1 4 ) | ( 2 3 ) }
L:1/8
M:4/4
K:C
V:1 treble nm="Grand Piano"
V:4 treble 
V:2 bass 
V:3 bass 
V:1
 z4 z2[Q:1/4=108] G2 | [Ec]2 [Ec]2 [Ec]2 [Ge]>[Fd] | [Ec]2 [Ec]2 [Ec]2 E>D | C2 C2 E2 [EG]2 | %4
[M:3/4] [FA]6 |[M:1/4] [FB]2 |[M:4/4] [Ec]2 [Ec]2 [Ec]2 E>D | C2 [FA]2 [EG]2 G2 | A3 A B2 B2 | %9
[M:3/4] [Ec]6 |[M:1/4] [G,G]2 |[M:4/4] e6 d2 | G6 z2 | A3 [GB] [Ac]2 [Ad]2 |[M:3/4] [^Ge]6 | %15
[M:1/4] [Ge]>[Fd] |[M:4/4] c2- [Ec-]2 [Ec]2 [Ec][GB] | A6 z2 | G2 c2 d d3 |[M:3/4] [Ec]6 |] %20
V:2
 z4 z2 G,2 | [C,G,]2 [C,G,]2 [C,G,]2 [C,G,]2 | z4 z2 G,2 | [C,E,]2 [C,E,]2 [C,G,C]2 [C,C]2 | %4
[M:3/4] [F,C]6 |[M:1/4] [D,G,]2 |[M:4/4] z4 z2 G,2 | [C,E,]2 [C,C]2 [C,C]2 [E,C]2 | %8
 [F,CF]3 [F,CF] [G,F]2 [G,F]2 |[M:3/4][K:bass] [C,G,]6 |[M:1/4] z2 | %11
[M:4/4] [C,C]2 [C,C]2 [C,C]2 [C,C]2 | [C,C]2 [C,C]2 [C,C]2 [E,C]2 | [F,CF]3 [F,C] [F,C]2 [F,A,]2 | %14
[M:3/4] [E,B,]6 |[M:1/4] [C,C]2 |[M:4/4] z4 z2 C2 | [F,CF]2 [F,C]2 [F,C]2[K:treble] [F,CF]2 | %18
 [G,CE]2 [G,CE]2 [G,B,F] [G,B,F]3 |[M:3/4][K:bass] [C,C]6 |] %20
V:3
 x8 | x8 | [C,G,]2 [C,G,]2 [C,G,]2 [C,C]->[C,F,C] | x8 |[M:3/4] x6 |[M:1/4] x2 | %6
[M:4/4] [C,G,]2 [C,G,]2 [C,G,]2 [C,C]->[C,F,C] | x8 | x8 |[M:3/4][K:bass] x6 |[M:1/4] x2 | %11
[M:4/4] x8 | x8 | x8 |[M:3/4] x6 |[M:1/4] x2 |[M:4/4] [C,C]2 [C,C]2 [C,C]2 C,E, | x6[K:treble] x2 | %18
 x8 |[M:3/4][K:bass] x6 |] %20
V:4
 x8 | x8 | x8 | x8 |[M:3/4] x6 |[M:1/4] x2 |[M:4/4] x8 | x8 | x8 |[M:3/4] x6 |[M:1/4] x2 | %11
[M:4/4] G2 G2 G2 F->[Fc] | E2 E2 E2 G2 | x8 |[M:3/4] x6 |[M:1/4] x2 |[M:4/4] E2 z2 z4 | %17
 z2 F2 F2 A2 | x8 |[M:3/4] x6 |] %20

